X: 608
T: Biao guniang
L: 1/8
M: 2/4
K: A
e e e f [I:setbarnb 1]| 
c BA2 | 
e c B c | 
A4 | 
A B c e | 
B2A c | 
B A F A | 
E4 | 
E3F | 
A2A F | 
e2B c | 
e FA2 | 
c B c e | 
A FE2 | 
c B c e | 
A FE2 | 
A B e c | 
B2A c | 
B BE2 | 
A F E C | 
E4 |]

@@@ Tune index: 9482
